icons/thumbsup-16.svg

<svg width="16" height="16" viewBox="0 0 16 16" fill="none" xmlns="http://www.w3.org/2000/svg">
<g clip-path="url(#clip0_8_4)">
<path d="M8.34708 0.630961C8.50219 0.356531 8.81236 0.208385 9.1233 0.260209L9.36122 0.299862C11.2751 0.618842 12.4849 2.53286 11.9519 4.39849L11.4943 6H12.1588C14.3285 6 15.889 8.08549 15.2768 10.167L14.1418 14.026C13.7976 15.1963 12.7234 16 11.5035 16H6.58615C5.80027 16 5.03668 15.7532 4.40162 15.298C4.08244 15.7242 3.57343 16 3 16H1.75C0.783502 16 0 15.2165 0 14.25V7.75C0 6.78351 0.783502 6 1.75 6H5.16654C5.25667 6 5.33982 5.95149 5.38418 5.87302L8.34708 0.630961ZM4.75 13.6487L5.14573 13.9785C5.55009 14.3155 6.05979 14.5 6.58615 14.5H11.5035C12.058 14.5 12.5463 14.1347 12.7027 13.6027L13.8377 9.7438C14.1674 8.62296 13.3271 7.5 12.1588 7.5H10.5C10.2647 7.5 10.043 7.38954 9.90124 7.20165C9.75952 7.01377 9.7142 6.77025 9.77886 6.54396L10.5096 3.9864C10.7708 3.07227 10.2548 2.13655 9.3833 1.84607L6.69002 6.6111C6.37956 7.16038 5.79747 7.5 5.16654 7.5H4.75V13.6487ZM3.25 7.5H1.75C1.61193 7.5 1.5 7.61193 1.5 7.75V14.25C1.5 14.3881 1.61193 14.5 1.75 14.5H3C3.13807 14.5 3.25 14.3881 3.25 14.25V7.5Z" fill="black"/>
</g>
<defs>
<clipPath id="clip0_8_4">
<rect width="16" height="16" fill="white"/>
</clipPath>
</defs>
</svg>

<svg xmlns="http://www.w3.org/2000/svg" width="16" height="16" viewBox="0 0 16 16"><path d="M8.347.631A.75.75 0 0 1 9.123.26l.238.04a3.25 3.25 0 0 1 2.591 4.098L11.494 6h.665a3.25 3.25 0 0 1 3.118 4.167l-1.135 3.859A2.751 2.751 0 0 1 11.503 16H6.586a3.75 3.75 0 0 1-2.184-.702A1.75 1.75 0 0 1 3 16H1.75A1.75 1.75 0 0 1 0 14.25v-6.5C0 6.784.784 6 1.75 6h3.417a.25.25 0 0 0 .217-.127ZM4.75 13.649l.396.33c.404.337.914.521 1.44.521h4.917a1.25 1.25 0 0 0 1.2-.897l1.135-3.859A1.75 1.75 0 0 0 12.159 7.5H10.5a.75.75 0 0 1-.721-.956l.731-2.558a1.75 1.75 0 0 0-1.127-2.14L6.69 6.611a1.75 1.75 0 0 1-1.523.889H4.75ZM3.25 7.5h-1.5a.25.25 0 0 0-.25.25v6.5c0 .138.112.25.25.25H3a.25.25 0 0 0 .25-.25Z"/></svg>
